X:1
T:Title
%%score { ( 1 3 ) | ( 2 4 ) }
L:1/8
M:3/4
K:C
V:1 treble nm="Grand Piano"
V:3 treble 
V:2 bass 
V:4 bass 
V:1
 z2 z2[Q:1/4=100] [EG]>[_E^F] | [FA]3 [EG] [Ec]>[FB] | B4 A>B | F3 A B>A |[M:2/4] [EG]4 | %5
[M:1/4] [EG]>[_E^F] |[M:3/4] [FA]3 [EG] [Gc]>[GB] | A4 AA | G3 c cB |[M:2/4] [Ec]4 |[M:4/4] z2 E6 | %11
 z2 A6 | z2 B6 | z2 G6 | z2 E6 | z2 A6 | z2 c6 |[M:7/8] z2 c- c- c3- | c2 z z z z2 |] %19
V:2
 z2 z2 [C,C]>[C,C] | [C,C]3 [C,C] [C,G,]>[D,G,] | [G,DF]4 [G,B,F]>[G,DF] | %3
 [G,B,D]3 [G,B,F] [G,DF]>[G,B,F] |[M:2/4][K:bass] [C,C]4 |[M:1/4] [C,C]>[C,C] | %6
[M:3/4] [C,C]3 [C,C] [E,C]>[E,C] | [F,CF]4 [^F,C_E][F,CE] | [G,CE]3 [G,CE] [G,DF][G,DF] | %9
[M:2/4][K:bass] [C,C]4 |[M:4/4] z4 [C,G,][C,G,] [C,G,]2 | z4 [F,A,][F,A,] [F,A,]2 | %12
 z4[K:treble] [G,D][G,D][G,D][G,CF] | [G,B,F][G,B,F][K:bass][C,C][C,C] [E,C][G,C] C2 | %14
 z4 [C,G,][C,G,] [C,G,]2 | z4 [F,A,][F,A,] [F,A,]2 | z4[K:treble] [G,D][G,D][G,D][G,DF] | %17
[M:7/8] [G,B,F][G,B,F][K:bass] z CA, ^G,=G,- | G,2 z z z z2 |] %19
V:3
 x6 | x6 | x6 | x6 |[M:2/4] x4 |[M:1/4] x2 |[M:3/4] x6 | x6 | x6 |[M:2/4] x4 |[M:4/4] GA z2 CC C2 | %11
 cd z2 DD D2 | Ac z2 FFFA | GAEE EE E2 | GA z2 CC C2 | cd z2 DD D2 | ed z2 FFFB | %17
[M:7/8] Gd[CE] EF FE- | E2 z z z z2 |] %19
V:4
 x6 | x6 | x6 | x6 |[M:2/4][K:bass] x4 |[M:1/4] x2 |[M:3/4] x6 | x6 | x6 |[M:2/4][K:bass] x4 | %10
[M:4/4] x8 | x8 | x4[K:treble] x4 | x2[K:bass] x6 | x8 | x8 | x4[K:treble] x4 | %17
[M:7/8] z2[K:bass] C,- C,- C,3- | C,2 z z z z2 |] %19

